X:1
T:Title
%%score { ( 1 3 ) | ( 2 4 ) }
L:1/8
M:6/4
K:Eb
V:1 treble nm="Grand Piano"
V:3 treble 
V:2 bass 
V:4 bass 
V:1
 z6 z4[Q:1/4=106] B2 | B3 A G2 G3 F E2 | G6 B4 [GB][GB] | c3 =B c2 e3 d c2 | %4
 [GB]6- [GB]4 [EG][EG] | [FA]3 [=EG] [FA]2 [Ac]2 [GB]2 [FA]2 | G6 B4 GG | F3 G =A2 A3 B c2 | %8
[M:5/4] [DB]2- [DB]2- [DB]6 |[M:5/16] c z/ z |[M:6/4] [Ge]3 [Gd] [Gc]2 [GB]3 [FA] G2 | B6 z6 | %12
 [Ge]3 [Gd] [Gc]2 [GB]2 [FA]2 [EG]2 | [DF]6- [DF]4 EF | G3 F E2 B3 A G2 |[M:7/4] c2 c2 d2 e6 dc | %16
[M:6/4] [EGB]3 [FA] [EG]2 [CDA]3 [B,DG] [A,B,F]2 |[M:5/4] [G,B,E]2- [G,B,E]2- [G,B,E]6 |] %18
V:2
 z6 z4 [E,G,E]2 | [E,G,E]3 [E,CE] [E,B,E]2 [E,B,E]3 [E,A,E] [E,G,]2 | %2
 [E,B,E]6 [E,G,E]4 [E,E][E,E] | [A,EA]3 [A,DA] [A,EA]2 [A,CA]3 [A,DA] [A,EA]2 | %4
 [E,E]6- [E,E]4 [E,B,][E,B,] | [B,,B,]3 [B,,B,] [B,,B,]2 [B,,B,]2 [C,B,]2 [D,B,]2 | %6
 [E,B,E]6 [E,G,E]4 [E,B,E][E,B,E] | [F,=A,E]3 [F,B,E] [F,CE]2 [F,CE]3 [F,B,E] [F,A,E]2 | %8
[M:5/4] [B,,B,]2- [B,,B,]2- [B,,B,]6 |[M:5/16] [B,,B,]/-[B,,B,]-<[B,,B,] | %10
[M:6/4] [E,B,]3 [E,B,] [E,B,]2 [E,E]3 [E,B,] [E,B,E]2 | [E,G,E]4 [F,A,]2 [G,B,E]4 [A,E][F,B,] | %12
 [E,B,]3 [E,B,] [E,B,]2 [E,E]2 [E,B,]2 [E,B,]2 | [B,,B,]6- [B,,B,]4 [E,G,B,][E,A,B,] | %14
 [E,B,E]3 [E,A,B,] [E,G,B,]2 [G,B,E]3 [F,B,D] [E,B,E]2 |[M:7/4][K:treble] z2 z2 z2 z2 z4 .D2 | %16
[M:6/4][K:bass] B,3 B, B,2 B,,3 B,, B,,2 |[M:5/4] E,2- E,2- E,6 |] %18
V:3
 x12 | x12 | x12 | x12 | x12 | x12 | x12 | x12 |[M:5/4] x10 |[M:5/16] A-[Ad]3/2 |[M:6/4] x12 | %11
 z4 D2 B4 c[Ad] | x12 | x12 | x12 |[M:7/4] x14 |[M:6/4] x12 |[M:5/4] x10 |] %18
V:4
 x12 | x12 | x12 | x12 | x12 | x12 | x12 | x12 |[M:5/4] x10 |[M:5/16] x5/2 |[M:6/4] x12 | x12 | %12
 x12 | x12 | x12 |[M:7/4][K:treble] [A,E]2 [A,E]2 [A,B,E]2 [=A,C_G]6 [A,G]-[A,EG] | %16
[M:6/4][K:bass] x12 |[M:5/4] x10 |] %18

